design-system/icons/check_indeterminate_small--labs-icons.svg

<svg width="22" height="20" viewBox="0 0 22 20" fill="none" xmlns="http://www.w3.org/2000/svg">
<mask id="mask0_306_101" style="mask-type:alpha" maskUnits="userSpaceOnUse" x="0" y="0" width="22" height="22">
<rect x="0.666504" width="21.0833" height="21.0833" fill="#D9D9D9"/>
</mask>
<g mask="url(#mask0_306_101)">
<path d="M6.39835 11.6837C6.07624 11.6837 5.80172 11.5702 5.57478 11.3433C5.34784 11.1163 5.23438 10.8418 5.23438 10.5197C5.23438 10.1976 5.34784 9.92307 5.57478 9.69614C5.80172 9.4692 6.07624 9.35573 6.39835 9.35573H16.0176C16.3397 9.35573 16.6143 9.4692 16.8412 9.69614C17.0681 9.92307 17.1816 10.1976 17.1816 10.5197C17.1816 10.8418 17.0681 11.1163 16.8412 11.3433C16.6143 11.5702 16.3397 11.6837 16.0176 11.6837H6.39835Z" fill="#1C1B1F"/>
</g>
</svg>

<svg xmlns="http://www.w3.org/2000/svg" width="22" height="20" fill="none" viewBox="0 0 22 20"><mask id="a" width="22" height="22" x="0" y="0" maskUnits="userSpaceOnUse" style="mask-type:alpha"><path fill="#d9d9d9" d="M.667 0H21.75v21.083H.667z"/></mask><g mask="url(#a)"><path fill="#1c1b1f" d="M6.398 11.684q-.483 0-.823-.34a1.12 1.12 0 0 1-.34-.824q0-.483.34-.824t.823-.34h9.62q.483 0 .823.34t.34.824-.34.823-.823.34z"/></g></svg>
